X:1
T:Title
%%score { 1 | 2 }
L:1/8
M:3/4
K:Ab
V:1 treble nm="Grand Piano"
V:2 bass 
V:1
 z2 z[Q:1/4=87] [CE] [CA][DB] | [Ec]3 [Ec] [DEB][CEA] | [Gd]3 E GA | B3 d c_c |[M:3/8] c3 | %5
 [Ge][A=d][EB_d] |[M:3/4] [EAc]3 [EAc] [EGB][_Gc] | [Fd]3 A GF | E3 A cB |[M:3/8] [CA]3 | EB>B | %11
[M:3/4] B3 E [EA]>B | c3 c cd | e3 e dc |[M:3/8] B3 | E[CA][DB] |[M:3/4] [Ec]3 c Bc | %17
[M:15/16] [Fd]3/2- [Fd]3 AG/-G/F | %18
[M:3/4] E3 A cB[Q:1/4=84][Q:1/4=82][Q:1/4=79][Q:1/4=76][Q:1/4=73][Q:1/4=71][Q:1/4=68] | %19
[M:3/8] [CA]3 |] %20
V:2
 z2 z [A,,A,] [A,,E,][A,,E,] | [A,,A,]3 [A,,A,] A,,A,, | [E,B,]3 [E,G,] [E,B,E][E,CE] | %3
 [E,DE]3 [E,G,E] [A,E][A,=D] |[M:3/8] [A,E]3 | [E,B,][F,B,]G, |[M:3/4] A,3 A, E,A, | %7
 [D,A,]3 [=D,F,_C] [D,G,C][D,A,C] | [E,A,C]3 [E,A,C] [E,A,E][E,G,D] |[M:3/8] [A,,A,]3 | %10
 [E,G,][E,G,D]>[E,G,D] |[M:3/4] [E,G,D]3 [E,G,] [C,A,]>[E,G,E] | [A,E]3 [A,E] [A,E][A,B,E] | %13
 [A,CE]3 [A,CE] [G,B,E][A,E] |[M:3/8] [E,G,E]3 | [E,G,D][A,,A,][A,,A,] | %16
[M:3/4] [A,,A,]3[K:treble] [A,EA] [A,DG][A,C_G] | %17
[M:15/16][K:bass] [D,A,]3/2- [D,A,]3 [E,F,_C][E,G,C]/-[E,G,C]/[E,A,C] | %18
[M:3/4] [E,A,C]3 [E,A,C] [E,A,E][E,G,D] |[M:3/8] [A,,A,]3 |] %20

